js/icons/info.svg

<?xml version="1.0" encoding="UTF-8"?>
<svg width="24px" height="24px" viewBox="0 0 24 24" version="1.1" xmlns="http://www.w3.org/2000/svg" xmlns:xlink="http://www.w3.org/1999/xlink">
    <!-- Generator: Sketch 52.2 (67145) - http://www.bohemiancoding.com/sketch -->
    <title>Info</title>
    <desc>Info</desc>
    <g id="Info" stroke="none" stroke-width="1" fill="none" fill-rule="evenodd">
        <g fill="#000000" fill-rule="nonzero">
            <path d="M11.1324433,6.88337731 L11.1323074,6.89607321 C11.1138533,7.62261302 11.7182748,8.23265646 12.4700271,8.23282618 C13.1733516,8.25115621 13.7805446,7.64396326 13.7806934,6.89691603 C13.7985996,6.16305363 13.2124944,5.55983325 12.4817224,5.55983325 C11.7375797,5.55983325 11.1324433,6.15337106 11.1324433,6.88337731 Z M12.4817224,4.55983325 C13.7753229,4.55983325 14.8119827,5.62676518 14.7805446,6.9091124 C14.7805446,8.20064677 13.7155645,9.2656269 12.4570005,9.23265646 C11.1622129,9.23265646 10.103978,8.16714995 10.1324487,6.87830689 C10.1352216,5.59398529 11.1912781,4.55983325 12.4817224,4.55983325 Z M13.4832708,18.0129464 C12.9447617,18.1106787 12.4981116,17.7983831 12.3517219,17.2617444 C12.2829771,16.9854127 12.2578692,16.7017256 12.2898562,16.4497022 C12.3200747,16.1913538 12.3556073,15.9895412 12.4428276,15.5442422 C12.4839938,15.3340702 12.5015344,15.2423211 12.5214095,15.1300569 C12.6152278,14.5895411 12.6936899,14.1577789 12.8702551,13.2007342 L12.8770652,13.1638211 C13.0538014,12.2058345 13.1358909,11.7534378 13.2346605,11.1843032 C13.3112185,10.8283663 13.3501302,10.5166361 13.3501302,10.2257934 C13.3501302,10.0966158 13.3455714,10.092548 13.1664279,10.092548 L10.1167044,10.092548 C10.7020669,10.2207812 10.980049,10.6039365 10.980049,11.2647211 C10.980049,11.3336371 10.9745712,11.3765824 10.9601651,11.4616363 C10.9552288,11.4907802 10.954324,11.49792 10.954324,11.4922942 L10.9466655,11.5794715 C10.7800993,12.5201689 10.6463572,13.2726705 10.3450754,14.9657288 C10.2989486,15.2624327 10.2651843,15.4819685 10.1891111,15.9758949 C10.1128648,16.4709439 10.0792155,16.6897283 10.0369105,16.9659157 C9.94350548,17.5560318 10.569025,18.2910882 11.1452193,18.3705076 C11.3358895,18.4023544 11.532239,18.4212006 11.7556534,18.4308004 C11.9311508,18.4383412 12.0738236,18.4398628 12.3918028,18.4400513 C12.9962361,18.4234503 13.5410508,18.2360998 14.0249585,17.8789491 C13.8310419,17.9492623 13.6487081,17.9950333 13.4832708,18.0129464 Z M15.5477999,17.550605 C15.464891,17.8034862 15.3225787,18.0468848 15.1718649,18.1974629 C14.4150645,18.982655 13.4782239,19.4105894 12.4055303,19.4398628 C12.0594619,19.4398628 11.9073282,19.4382403 11.7127244,19.4298785 C11.4508696,19.418627 11.2146052,19.3959497 10.9947534,19.3590173 C9.90524035,19.2092431 8.86320109,17.9847288 9.04882127,16.8120542 C9.09079779,16.53797 9.12449707,16.3188606 9.2003759,15.826198 C9.27681628,15.3298875 9.31053021,15.1106789 9.35454718,14.8242199 L9.36054234,14.79053 C9.66177402,13.0977531 9.79548284,12.3454391 9.95432401,11.4922942 C9.95432401,11.4231381 9.9599126,11.3790375 9.97420789,11.2946381 C9.97915924,11.2654054 9.98004897,11.2584299 9.98004897,11.2647211 C9.98004897,11.0349838 10.0161779,11.0758007 9.78389434,11.0513102 L9.76147893,11.0484701 C9.44898834,11.0088942 9.30557517,10.9863229 9.0805621,10.9284949 C8.65994688,10.7876812 8.40980306,10.4055802 8.41377642,9.93531091 C8.46864091,9.50271556 8.76842672,9.21741978 9.21595777,9.12827879 C9.30286279,9.11062664 9.3937897,9.10097337 9.4953027,9.09629397 C9.5632202,9.0931632 9.61537573,9.09254797 9.7211677,9.09254797 L13.1664279,9.09254797 C13.8740715,9.09254797 14.3501302,9.51733309 14.3501302,10.2257934 C14.3501302,10.5943379 14.3027037,10.9742824 14.216179,11.3745829 C14.1204389,11.9286234 14.0378792,12.3836118 13.8604699,13.3452466 L13.8536593,13.3821625 C13.6777303,14.3357587 13.5996948,14.7651731 13.5063897,15.3027158 C13.4848116,15.4246176 13.4665186,15.520302 13.4241801,15.7364589 C13.3419053,16.1565087 13.309321,16.3415763 13.2824971,16.5706994 C13.2669107,16.6935956 13.2812964,16.8561359 13.3192763,17.0093368 C13.4941319,17.0064779 13.6699825,16.9528833 13.8801104,16.8588396 C13.9154068,16.8436563 13.9520432,16.8238969 14.0290122,16.7790474 C14.0541137,16.7644049 14.0541137,16.7644049 14.0812688,16.7486762 C14.2209883,16.6681189 14.321521,16.619817 14.4056478,16.5978486 C15.0884336,16.3366695 15.7378019,16.8481864 15.5477999,17.550605 Z" id="Fill-1"></path>
            <path d="M12,23 C18.0751322,23 23,18.0751322 23,12 C23,5.92486775 18.0751322,1 12,1 C5.92486775,1 1,5.92486775 1,12 C1,18.0751322 5.92486775,23 12,23 Z M12,24 C5.372583,24 0,18.627417 0,12 C0,5.372583 5.372583,0 12,0 C18.627417,0 24,5.372583 24,12 C24,18.627417 18.627417,24 12,24 Z" id="Oval-14"></path>
        </g>
    </g>
</svg>

<?xml version="1.0" encoding="UTF-8"?>
<svg width="24px" height="24px" viewBox="0 0 24 24" version="1.1" xmlns="http://www.w3.org/2000/svg" xmlns:xlink="http://www.w3.org/1999/xlink">
    <!-- Generator: Sketch 52.2 (67145) - http://www.bohemiancoding.com/sketch -->
    <title>Info</title>
    <desc>Info</desc>
    <g id="Info" fill="#000" fill-rule="nonzero" stroke="none" stroke-width="1">
        <path id="Fill-1" d="M11.132 6.883v.013c-.018.727.586 1.337 1.338 1.337.703.018 1.31-.589 1.31-1.336a1.302 1.302 0 0 0-1.298-1.337c-.744 0-1.35.593-1.35 1.323zm1.35-2.323a2.299 2.299 0 0 1 2.299 2.35c0 1.29-1.065 2.356-2.324 2.323-1.295 0-2.353-1.066-2.325-2.355.003-1.284 1.06-2.318 2.35-2.318zm1.001 13.453c-.538.098-.985-.215-1.131-.751a2.259 2.259 0 0 1-.062-.812c.03-.259.066-.46.153-.906.041-.21.059-.302.078-.414.094-.54.173-.972.35-1.93l.006-.036c.177-.958.259-1.41.358-1.98a4.58 4.58 0 0 0 .115-.958c0-.13-.004-.133-.184-.133h-3.05c.586.128.864.51.864 1.172a.98.98 0 0 1-.02.197c-.005.029-.006.036-.006.03l-.007.087c-.167.941-.3 1.694-.602 3.387l-.156 1.01-.152.99c-.093.59.532 1.325 1.108 1.405.19.031.387.05.61.06.176.007.319.009.637.01a2.82 2.82 0 0 0 1.633-.562c-.194.07-.376.116-.542.134zm2.065-.462a1.711 1.711 0 0 1-.376.646c-.757.786-1.694 1.214-2.766 1.243-.347 0-.499-.002-.693-.01a5.841 5.841 0 0 1-.718-.071c-1.09-.15-2.132-1.374-1.946-2.547a1085.72 1085.72 0 0 1 .306-1.988l.006-.033c.3-1.693.434-2.446.593-3.299 0-.069.006-.113.02-.197.005-.03.006-.037.006-.03 0-.23.036-.19-.196-.214l-.023-.003a4.774 4.774 0 0 1-.68-.12c-.421-.14-.671-.522-.667-.993.055-.432.354-.718.802-.807.087-.017.178-.027.28-.032.067-.003.12-.003.225-.003h3.445c.708 0 1.184.424 1.184 1.133 0 .368-.047.748-.134 1.149-.096.554-.178 1.009-.356 1.97l-.006.037c-.176.954-.254 1.383-.348 1.92-.021.123-.04.218-.082.434-.082.42-.115.606-.142.835-.015.123 0 .285.037.438.175-.003.351-.056.561-.15.035-.015.072-.035.149-.08l.052-.03c.14-.08.24-.13.325-.151.682-.261 1.332.25 1.142.953z"/>
        <path id="Oval-14" d="M12 23c6.075 0 11-4.925 11-11S18.075 1 12 1 1 5.925 1 12s4.925 11 11 11zm0 1C5.373 24 0 18.627 0 12S5.373 0 12 0s12 5.373 12 12-5.373 12-12 12z"/>
    </g>
</svg>
